Adwaita++/actions/16/check_constraint.svg

<svg fill="none" height="16" viewBox="0 0 16 16" width="16" xmlns="http://www.w3.org/2000/svg" xmlns:xlink="http://www.w3.org/1999/xlink">
  <defs>
    <clipPath id="clip0">
      <path d="m0 0h16v16h-16z"/>
    </clipPath>
  </defs>
  <g clip-path="url(#clip0)" fill="#444">
    <path d="m0 12.319c0-.6947.136462-1.3109.409387-1.8484.281194-.53761.657503-.95113 1.128913-1.2406.47969-.28946 1.01313-.43419 1.60033-.43419.51277 0 .95937.10338 1.33981.31014.38871.20676.69885.46728.93043.78155v-.98004h1.74919v6.87274h-1.74919v-1.0049c-.22331.3226-.53345.5914-.93043.8064-.38871.2068-.83945.3101-1.35221.3101-.57894 0-1.10824-.1488-1.58793-.4466-.47141-.2977-.847719-.7154-1.128913-1.2529-.272925-.5459-.409387-1.1703-.409387-1.8733zm5.40887.0248c0-.4218-.08271-.7815-.24812-1.0793-.16541-.306-.38871-.5375-.6699-.6947-.2812-.1654-.58307-.2481-.90562-.2481-.32254 0-.62028.0786-.8932.2357-.27293.1571-.49623.3887-.66991.6947-.16541.2978-.24811.6534-.24811 1.0669s.0827.7774.24811 1.0917c.17368.306.39698.5417.66991.7071.28119.1654.57893.2481.8932.2481.32255 0 .62442-.0785.90562-.2357.28119-.1654.50449-.3969.6699-.6947.16541-.306.24812-.6699.24812-1.0917z"/>
    <path d="m10.5911 9.91232c.2233-.33082.5293-.59961.9181-.80637.3969-.20676.8477-.31014 1.3522-.31014.5872 0 1.1165.14473 1.5879.43419.4797.28947.856.70299 1.1289 1.2406.2812.5293.4218 1.1454.4218 1.8484s-.1406 1.3274-.4218 1.8733c-.2729.5375-.6492.9552-1.1289 1.2529-.4714.2978-1.0007.4466-1.5879.4466-.5128 0-.9635-.0992-1.3522-.2977-.3805-.2068-.6865-.4714-.9181-.794v.9801h-1.73676v-9.18019h1.73676zm3.6349 2.40668c0-.4135-.0868-.7691-.2605-1.0669-.1654-.306-.3887-.5376-.6699-.6947-.273-.1571-.5707-.2357-.8932-.2357-.3143 0-.6121.0827-.8932.2481-.273.1572-.4963.3887-.67.6947-.1654.306-.2481.6658-.2481 1.0793s.0827.7733.2481 1.0793c.1737.306.397.5417.67.7071.2811.1572.5789.2357.8932.2357.3225 0 .6202-.0827.8932-.2481.2812-.1654.5045-.4011.6699-.7071.1737-.306.2605-.6699.2605-1.0917z"/>
    <path d="m8.00002.00448607 6.99998-.00447965v.50477358.052218c.0007.097423-.0272.193727-.0875.278551l-2.8 3.900731c-.1203.17313-.3664.26132-.6125.26148s-.4922-.08772-.6125-.2607l-2.79998-3.897143c-.06037-.084747-.08842-.181016-.0875-.27844v-.052218z"/>
  </g>
</svg>

<svg xmlns="http://www.w3.org/2000/svg" fill="none" width="16" height="16" viewBox="0 0 16 16">
 <g clip-path="url(#clip0)">
  <path fill="#444" d="M0 12.319C0 11.6243 0.136462 11.0081 0.409387 10.4706C0.690581 9.93299 1.06689 9.51947 1.5383 9.23C2.01799 8.94054 2.55143 8.79581 3.13863 8.79581C3.6514 8.79581 4.098 8.89919 4.47844 9.10595C4.86715 9.31271 5.17729 9.57323 5.40887 9.8875V8.90746H7.15806V15.7802H5.40887V14.7753C5.18556 15.0979 4.87542 15.3667 4.47844 15.5817C4.08973 15.7885 3.63899 15.8918 3.12623 15.8918C2.54729 15.8918 2.01799 15.743 1.5383 15.4452C1.06689 15.1475 0.690581 14.7298 0.409387 14.1923C0.136462 13.6464 0 13.022 0 12.319ZM5.40887 12.3438C5.40887 11.922 5.32616 11.5623 5.16075 11.2645C4.99534 10.9585 4.77204 10.727 4.49085 10.5698C4.20965 10.4044 3.90778 10.3217 3.58523 10.3217C3.26269 10.3217 2.96495 10.4003 2.69203 10.5574C2.4191 10.7145 2.1958 10.9461 2.02212 11.2521C1.85671 11.5499 1.77401 11.9055 1.77401 12.319C1.77401 12.7325 1.85671 13.0964 2.02212 13.4107C2.1958 13.7167 2.4191 13.9524 2.69203 14.1178C2.97322 14.2832 3.27096 14.3659 3.58523 14.3659C3.90778 14.3659 4.20965 14.2874 4.49085 14.1302C4.77204 13.9648 4.99534 13.7333 5.16075 13.4355C5.32616 13.1295 5.40887 12.7656 5.40887 12.3438Z"/>
  <path fill="#444" d="M10.5911 9.91232C10.8144 9.5815 11.1204 9.31271 11.5092 9.10595C11.9061 8.89919 12.3569 8.79581 12.8614 8.79581C13.4486 8.79581 13.9779 8.94054 14.4493 9.23C14.929 9.51947 15.3053 9.93299 15.5782 10.4706C15.8594 10.9999 16 11.616 16 12.319C16 13.022 15.8594 13.6464 15.5782 14.1923C15.3053 14.7298 14.929 15.1475 14.4493 15.4452C13.9779 15.743 13.4486 15.8918 12.8614 15.8918C12.3486 15.8918 11.8979 15.7926 11.5092 15.5941C11.1287 15.3873 10.8227 15.1227 10.5911 14.8001V15.7802H8.85434V6.60001H10.5911V9.91232ZM14.226 12.319C14.226 11.9055 14.1392 11.5499 13.9655 11.2521C13.8001 10.9461 13.5768 10.7145 13.2956 10.5574C13.0226 10.4003 12.7249 10.3217 12.4024 10.3217C12.0881 10.3217 11.7903 10.4044 11.5092 10.5698C11.2362 10.727 11.0129 10.9585 10.8392 11.2645C10.6738 11.5705 10.5911 11.9303 10.5911 12.3438C10.5911 12.7573 10.6738 13.1171 10.8392 13.4231C11.0129 13.7291 11.2362 13.9648 11.5092 14.1302C11.7903 14.2874 12.0881 14.3659 12.4024 14.3659C12.7249 14.3659 13.0226 14.2832 13.2956 14.1178C13.5768 13.9524 13.8001 13.7167 13.9655 13.4107C14.1392 13.1047 14.226 12.7408 14.226 12.319Z"/>
  <path fill="#444" d="M8.00002 0.00448607L15 6.4249e-06V0.50478V0.556998C15.0007 0.654421 14.9728 0.750725 14.9125 0.835549L12.1125 4.73628C11.9922 4.90941 11.7461 4.9976 11.5 4.99776C11.2539 4.99792 11.0078 4.91004 10.8875 4.73706L8.08752 0.839917C8.02715 0.75517 7.9991 0.658901 8.00002 0.561477V0.509259V0.00448607Z"/>
 </g>
 <defs>
  <clipPath id="clip0">
   <rect fill="#fff" width="16" height="16"/>
  </clipPath>
 </defs>
</svg>
